!!!!SEGMENT: pl-wnifc--6670-n--001-010_gall-jan-karol--piesni-polskie-na-chor-meski-z-i-10-stala-matka-bolesciwa.krn
!!!cenid: 19xx:178
!!!COM: Gall, Jan Karol
!!!COM-rismID: pe50042628
!!!CDT: 1856-1912
!!!CNT: Polish
!!!GTL: Pieśni polskie na chór męski (z. I)
!!!OTL: 10. Stała matka boleściwa
!!!OMV: 010
!!!PDT:
!!!AGN:
!!!YEC: Copyright 2022 Narodowy Instytut Fryderyka Chopina (https://polishscores.org)
!!!YEM: License CC-BY-4.0 (https://creativecommons.org/licenses/by/4.0)
!!!SMS-siglum: PL-Wnifc
!!!SMS-shelfmark: 6670/n
!!!SMS-variant:
!!!SMS-altvar:
!!!SMS-shelfwork: 001-010 G
!!!NIFC-rismSourceID: 1001152877
!!!NIFC-rismChildID: 1001152895
!!!NIFC-islandoraID: nifc:213182
!!!URL-pdf-islandora: https://repozytorium.nifc.pl/islandora/object/nifc:213182/datastream/PDF/view
!!!URL-scan: https://polish.musicsources.pl/pl/lokalizacje/galeria/druki-muzyczne/16895/7 @EN{Scan on Polish Music Sources Website} @PL{Skany w portalu Dziedzictwo Muzyki Polskiej w otwartym dostępie}
!!!IIIF:
!!!ONB-nifc:
!!!AIN: 1 bass 1 tenor
!!!key: B-
**kern	**dynam	**kern	**text	**text	**dynam
*part2	*part2	*part1	*part1	*part1	*part1
*staff2	*	*staff1	*staff1	*staff1	*
*ICvox	*	*ICvox	*	*	*
*Ibass	*	*Itenor	*	*	*
*I"Basy.	*	*I"Tenory.	*	*	*
*I'B	*	*I'T	*	*	*
*clefF4	*	*clefG2	*	*	*
*k[b-e-]	*	*k[b-e-]	*	*	*
*B-:	*	*B-:	*	*	*
*M4/2	*	*M4/2	*	*	*
*met(c)	*	*met(c)	*	*	*
=1	=1	=1	=1	=1	=1
!!!OMD: Lento.
*^	*	*^	*	*	*
2D/	2BB-\	.	2b-/	2b-\	Sta-	Któ-	.
2F/	2FF\	.	2cc/	(4b-\	-ła	-rej	.
.	.	.	.	4a\)	.	.	.
2F/	2BB-\	.	2dd/	2b-\	mat-	du-	.
2F/	2FF\	.	2cc/	(4b-\	-ka	-szę	.
.	.	.	.	4a\)	.	.	.
=2	=2	=2	=2	=2	=2	=2	=2
2F/	2AA\	.	2ee-/	2cc\	bo-	tak	.
2F/	2BB-\	.	2dd/	(4cc\	-le-	stra-	.
.	.	.	.	4b-\)	.	.	.
(4G/	(4EE-\	.	2cc/	(4b-\	-ści-	-pio-	.
4F/)	4FF\)	.	.	4a\)	.	.	.
2D/	2BB-;\	.	2b-;/	2b-\	-wa	-ną	.
!!LO:LB:g=original
=3	=3	=3	=3	=3	=3	=3	=3
2F/	2D\	.	2ff/	2b-\	Pod	Wiel-	.
2G/	2C\	.	2ee-/	2b-\	krzy-	-kim	.
(4F/	2D\	.	2dd/	2b-\	-żem	ża-	.
4F#X/)	.	.	.	.	.	.	.
2G/	2E-\	.	2cc/	2b-\	bar-	-lem	.
=4	=4	=4	=4	=4	=4	=4	=4
2G/	2C\	.	2ee-/	2b-\	-dzo	ob-	.
(4F/	2D\	.	2dd/	2b-\	smu-	-cią-	.
4F#X/)	.	.	.	.	.	.	.
(4G/	(4E-\	.	2cc/	(4b-\	-tli-	-żo-	.
4Fn/)	4Fn\)	.	.	4a\)	.	.	.
2D/	2BB-\	.	2b-/	2b-\	-wa	-ną	.
=5	=5	=5	=5	=5	=5	=5	=5
2F/	2FF\	.	2cc/	2b-\	na	miecz	.
2F/	2FF\	.	2cc/	(4a\	któ-	bo-	.
.	.	.	.	4g\)	.	.	.
!	!	!	!	!	!	!	!LO:HP:a
(4F/	(4F\	<	2cc/	2a\	-rym	-le-	<
4G/)	4E-\)	.	.	.	.	.	.
(4G/	2D\	[	2dd/	2a\	jej	-ści	[
4F#X/)	.	.	.	.	.	.	.
!!LO:LB:g=original
=6	=6	=6	=6	=6	=6	=6	=6
2G/	2C\	>	2ee-/	2b-\	syn	prze-	.
!	!	!	!	!	!	!	!LO:HP:a
2G/	2E-\	.	2cc/	(4b-\	wi-	-ni-	>
.	.	]	.	4a\)	.	.	]
(2G/	1D\;	.	1dd/;	1a\	-siał	-kał	.
2F#X;/)	.	.	.	.	.	.	.
=7	=7	=7	=7	=7	=7	=7	=7
!	!	!LO:DY:rj	!	!	!	!	!LO:DY:a:rj
2G/	2E-\	p	2cc/	2g\	na	miecz	p
2G/	2E-\	.	2cc/	2g\	któ-	bo-	.
!	!	!	!	!	!	!	!LO:HP:a
2G/	2E-\	<	2cc/	(4g\	-rym	-le-	<
.	.	.	.	4a\)	.	.	.
(4G/	2D\	[	2dd/	2a\	jej	-ści	[
4F#X/)	.	.	.	.	.	.	.
=8	=8	=8	=8	=8	=8	=8	=8
!	!	!LO:DY:rj	!	!	!	!	!LO:DY:a:rj
2G/	2C\	sf	2ee-/	2b-\	syn	prze-	sf
(4G/	(4E-\	.	2cc/	(4b-\	wi-	-ni-	.
4F/)	4Fn\)	.	.	4a\)	.	.	.
1D/	1BB-\	.	1b-/	1ryy	-siał.	-kał.	.
*v	*v	*	*	*	*	*	*
*	*	*v	*v	*	*	*
==	==	==	==	==	==
*-	*-	*-	*-	*-	*-
!!!system-decoration: [(s1,s2)]
!!!ENC: Andrzej Gręziak
!!!END: 2024-05-02
!!!EED: Andrzej Borzym
!!!EEV: 2025-03-06
